src/pos-icons/gamepad-up.svg

<svg height="24" viewBox="0 0 24 24" width="24" xmlns="http://www.w3.org/2000/svg"><path d="m9 2v5.5l3 3 3-3v-5.5zm2 2h2v2h-2zm-9 5v6h5.5l3-3-3-3zm14.5 0-3 3 3 3h5.5v-6zm-4.5 4.5-3 3v5.5h6v-5.5z"/></svg>

<?xml version="1.0" encoding="UTF-8"?><!DOCTYPE svg PUBLIC "-//W3C//DTD SVG 1.1//EN" "http://www.w3.org/Graphics/SVG/1.1/DTD/svg11.dtd"><svg xmlns="http://www.w3.org/2000/svg" xmlns:xlink="http://www.w3.org/1999/xlink" version="1.1" id="mdi-gamepad-up" width="24" height="24" viewBox="0 0 24 24"><path d="M9,2V7.5L12,10.5L15,7.5V2H9M11,4H13V6H11V4M2,9V15H7.5L10.5,12L7.5,9H2M16.5,9L13.5,12L16.5,15H22V9H16.5M12,13.5L9,16.5V22H15V16.5L12,13.5Z" /></svg>
